src/4-icons/speak.svg

<svg width="260" height="260" viewBox="0 0 260 260" fill="none" xmlns="http://www.w3.org/2000/svg">
<g opacity="0.9">
<path fill-rule="evenodd" clip-rule="evenodd" d="M164.06 121.317C164.06 140.167 148.772 155.455 129.922 155.455C111.072 155.429 95.7837 140.167 95.7837 121.291V56.1865C95.7837 37.3365 111.072 22.0483 129.922 22.0483C148.772 22.0483 164.06 37.3365 164.06 56.1865V121.317ZM113.126 39.4165C108.836 43.7065 106.184 49.6083 106.184 56.1865V121.291C106.184 127.868 108.81 133.77 113.126 138.087C117.441 142.377 123.344 145.028 129.921 145.028C136.498 145.028 142.4 142.403 146.716 138.087C151.006 133.771 153.658 127.869 153.658 121.291V56.1865C153.658 49.6347 151.033 43.7319 146.716 39.4165C142.401 35.1265 136.498 32.4747 129.921 32.4747C123.344 32.4747 117.441 35.1012 113.126 39.4165Z" fill="black"/>
<path d="M79.6636 150.047C77.2454 145.445 75.8682 140.817 75.53 136.475L75.5269 136.478C75.2669 133.072 75.1105 127.768 75.0587 121.606C74.9541 115.523 74.9287 108.684 74.9287 102.444C74.9287 91.4472 75.0069 82.2426 75.0069 82.2426L85.4069 82.3472C85.4069 82.3472 85.3815 84.61 85.3551 88.2754C85.3287 91.9408 85.3033 96.9854 85.3033 102.445C85.3033 108.685 85.3297 115.471 85.4079 121.477C85.4861 127.484 85.6415 132.735 85.8761 135.647C86.0579 138.325 87.0197 141.704 88.8397 145.189C90.6597 148.674 93.3633 152.261 96.9515 155.459C104.153 161.855 114.944 166.874 130.44 166.899C134.236 166.899 139.254 166.691 144.506 165.703C149.733 164.713 155.14 162.946 159.768 160.008C162.863 158.032 165.593 155.588 167.854 152.39C170.844 148.152 173.054 142.588 173.704 134.84C174.016 131.095 174.224 125.063 174.354 118.485C174.485 111.882 174.511 104.705 174.511 98.4916C174.511 93.8888 174.484 89.807 174.459 86.8952C174.459 83.9834 174.434 82.2152 174.434 82.2152L184.834 82.1106C184.834 82.1106 184.912 89.2342 184.912 98.4906C184.912 104.756 184.885 111.984 184.755 118.666C184.624 125.373 184.443 131.483 184.079 135.721C183.299 145.03 180.491 152.57 176.357 158.42C172.224 164.27 166.842 168.351 161.225 171.133C152.099 175.631 142.427 176.853 135.121 177.191V201.111H182.129V211.511H77.6871V201.111H124.747V177.087C113.957 176.281 104.935 173.24 97.7071 168.871C89.2318 163.749 83.2771 156.937 79.6636 150.047Z" fill="black"/>
</g>
</svg>

<svg width="260" height="260" fill="none" xmlns="http://www.w3.org/2000/svg"><g opacity=".9" fill="#000"><path fill-rule="evenodd" clip-rule="evenodd" d="M164.06 121.317c0 18.85-15.288 34.138-34.138 34.138-18.85-.026-34.138-15.288-34.138-34.164V56.186c0-18.85 15.288-34.138 34.138-34.138 18.85 0 34.138 15.289 34.138 34.139v65.13Zm-50.934-81.9c-4.29 4.29-6.942 10.191-6.942 16.77v65.104c0 6.577 2.626 12.479 6.942 16.796 4.315 4.29 10.218 6.941 16.795 6.941 6.577 0 12.479-2.625 16.795-6.941 4.29-4.316 6.942-10.218 6.942-16.796V56.186a23.57 23.57 0 0 0-6.942-16.77c-4.315-4.29-10.218-6.941-16.795-6.941-6.577 0-12.48 2.626-16.795 6.941Z"/><path d="M79.664 150.047c-2.419-4.602-3.796-9.23-4.134-13.572l-.003.003c-.26-3.406-.416-8.71-.468-14.872-.105-6.083-.13-12.922-.13-19.162 0-10.997.078-20.201.078-20.201l10.4.104s-.025 2.263-.052 5.928c-.026 3.666-.052 8.71-.052 14.17 0 6.24.027 13.026.105 19.032.078 6.007.233 11.258.468 14.17.182 2.678 1.144 6.057 2.964 9.542 1.82 3.485 4.523 7.072 8.111 10.27 7.202 6.396 17.993 11.415 33.489 11.44 3.796 0 8.814-.208 14.066-1.196 5.227-.99 10.634-2.757 15.262-5.695 3.095-1.976 5.825-4.42 8.086-7.618 2.99-4.238 5.2-9.802 5.85-17.55.312-3.745.52-9.777.65-16.355.131-6.603.157-13.78.157-19.993 0-4.603-.027-8.685-.052-11.597 0-2.912-.025-4.68-.025-4.68l10.4-.104s.078 7.123.078 16.38c0 6.265-.027 13.493-.157 20.175-.131 6.707-.312 12.817-.676 17.055-.78 9.309-3.588 16.849-7.722 22.699-4.133 5.85-9.515 9.931-15.132 12.713-9.126 4.498-18.798 5.72-26.104 6.058v23.92h47.008v10.4H77.687v-10.4h47.06v-24.024c-10.79-.806-19.812-3.847-27.04-8.216-8.475-5.122-14.43-11.934-18.043-18.824Z"/></g></svg>
